source/work/images/artifact_designextension.svg

<svg xmlns="http://www.w3.org/2000/svg" width="64" height="64" viewBox="0 0 64 64"><style type="text/css">.frame{fill:#FFFFFF;} .content{opacity:0.5;fill:#FFFFFF;}</style><path class="content" d="M47.5 40h-15v1h15v-1zm-12.5 8.5v-4.5l.009-.043 2.839 4.543h1.179l-3.391-5.426c.113-.045.235-.074.364-.074h8c.129 0 .251.029.364.074l-3.391 5.426h1.179l2.839-4.543.009.043v4.5h1v-4.5c0-1.105-.895-2-2-2h-8c-1.105 0-2 .895-2 2v4.5h1zm-1-21c0-.276.224-.5.5-.5h2c.276 0 .5.224.5.5s-.224.5-.5.5h-2c-.276 0-.5-.224-.5-.5zm.5 2.5h2c.276 0 .5-.224.5-.5s-.224-.5-.5-.5h-2c-.276 0-.5.224-.5.5s.224.5.5.5zm2.5 8c-.276 0-.5.224-.5.5s.224.5.5.5.5-.224.5-.5-.224-.5-.5-.5zm2 0c-.276 0-.5.224-.5.5s.224.5.5.5.5-.224.5-.5-.224-.5-.5-.5zm2 0c-.276 0-.5.224-.5.5s.224.5.5.5.5-.224.5-.5-.224-.5-.5-.5zm2 0c-.276 0-.5.224-.5.5s.224.5.5.5.5-.224.5-.5-.224-.5-.5-.5zm-38.5-19h9c.276 0 .5-.224.5-.5s-.224-.5-.5-.5h-9c-.276 0-.5.224-.5.5s.224.5.5.5zm0 2h9c.276 0 .5-.224.5-.5s-.224-.5-.5-.5h-9c-.276 0-.5.224-.5.5s.224.5.5.5zm0 12h19c.276 0 .5-.224.5-.5s-.224-.5-.5-.5h-19c-.276 0-.5.224-.5.5s.224.5.5.5zm0 8h9c.276 0 .5-.224.5-.5s-.224-.5-.5-.5h-9c-.276 0-.5.224-.5.5s.224.5.5.5zm25-14h-25c-.276 0-.5-.224-.5-.5s.224-.5.5-.5h25v1zm0 2h-25c-.276 0-.5-.224-.5-.5s.224-.5.5-.5h25v1zm0 2h-25c-.276 0-.5-.224-.5-.5s.224-.5.5-.5h25v1zm0 6h-25c-.276 0-.5-.224-.5-.5s.224-.5.5-.5h25v1zm0 2h-25c-.276 0-.5-.224-.5-.5s.224-.5.5-.5h25v1zm1.5-22h6c1.105 0 2-.895 2-2v-6c0-1.105-.895-2-2-2h-6c-1.105 0-2 .895-2 2v6c0 1.105.895 2 2 2zm-1-2v-6l.049-.244 3.244 3.244-3.244 3.244-.049-.244zm1 1l-.244-.049 3.244-3.244 3.244 3.244-.244.049h-6zm6.951-7.244l.049.244v6l-.049.244-3.244-3.244 3.244-3.244zm-.951-.756l.244.049-3.244 3.244-3.244-3.244.244-.049h6zm-22.293 46l3.646 3.646-.707.707-3.646-3.646-3.646 3.646-.707-.707 3.646-3.646-3.646-3.646.707-.707 3.646 3.646 3.646-3.646.707.707-3.646 3.646zm47.793-25v1h-12v-1h10.635l-11.135-7.887-1.958 1.387h-1.731l2.824-2-7.635-5.408v-1.226l8.5 6.021 11.711-8.295.578.816-11.424 8.092 11.424 8.092-.289.408h.5zm-3 15h-9v1h9c.276 0 .5-.224.5-.5s-.224-.5-.5-.5zm0 2h-9v1h9c.276 0 .5-.224.5-.5s-.224-.5-.5-.5zm-4 2h-5v1h5c.276 0 .5-.224.5-.5s-.224-.5-.5-.5zm-5-13h9c.276 0 .5-.224.5-.5s-.224-.5-.5-.5h-9v1zm9 3h-9v1h9c.276 0 .5-.224.5-.5s-.224-.5-.5-.5zm0-2h-9v1h9c.276 0 .5-.224.5-.5s-.224-.5-.5-.5zm0 4h-9v1h9c.276 0 .5-.224.5-.5s-.224-.5-.5-.5zm0 2h-9v1h9c.276 0 .5-.224.5-.5s-.224-.5-.5-.5z"/><path class="frame" d="M40.135 51c-1.105 0-2 .895-2 2s.895 2 2 2 2-.895 2-2-.895-2-2-2zm0 3c-.551 0-1-.449-1-1s.449-1 1-1 1 .449 1 1-.448 1-1 1zm6.865-29h-14c-.552 0-1 .448-1 1v22c0 .552.448 1 1 1h14c.552 0 1-.448 1-1v-22c0-.552-.448-1-1-1zm0 23h-14v-22h14v22zm13-37h-18v-4c0-1.657-1.343-3-3-3h-35c-1.657 0-3 1.343-3 3v45c0 1.657 1.343 3 3 3h4.09c.477 2.837 2.938 5 5.91 5s5.433-2.163 5.91-5h9.09c0 1.657 1.343 3 3 3h16c1.657 0 3-1.343 3-3h9c1.657 0 3-1.343 3-3v-38c0-1.657-1.343-3-3-3zm-46 48c-2.757 0-5-2.243-5-5s2.243-5 5-5 5 2.243 5 5-2.243 5-5 5zm15-34v29h-9c0-3.314-2.686-6-6-6s-6 2.686-6 6h-4c-1.103 0-2-.897-2-2v-45c0-1.103.897-2 2-2h35c1.103 0 2 .897 2 2v15h-9c-1.657 0-3 1.343-3 3zm21 30c0 1.103-.897 2-2 2h-16c-1.103 0-2-.897-2-2v-30c0-1.103.897-2 2-2h16c1.103 0 2 .897 2 2v30zm12-3c0 1.103-.897 2-2 2h-9v-29c0-1.657-1.343-3-3-3h-6v-10h18c1.103 0 2 .897 2 2v38z"/></svg>

<?xml version="1.0" encoding="utf-8"?>
<!-- Generator: Adobe Illustrator 19.2.1, SVG Export Plug-In . SVG Version: 6.00 Build 0)  -->
<svg version="1.1" id="icons" xmlns="http://www.w3.org/2000/svg" xmlns:xlink="http://www.w3.org/1999/xlink" x="0px" y="0px"
	 width="64px" height="64px" viewBox="0 0 64 64" style="enable-background:new 0 0 64 64;" xml:space="preserve">
<style type="text/css">
	.frame{fill:#FFFFFF;}
	.content{opacity:0.5;fill:#FFFFFF;}
</style>
<path class="content" d="M47.5,40h-15v1h15V40z M35,48.5V44c0-0.015,0.008-0.028,0.009-0.043l2.839,4.543h1.179l-3.391-5.426
	C35.749,43.029,35.871,43,36,43h8c0.129,0,0.251,0.029,0.364,0.074L40.973,48.5h1.179l2.839-4.543C44.992,43.972,45,43.985,45,44
	v4.5h1V44c0-1.105-0.895-2-2-2h-8c-1.105,0-2,0.895-2,2v4.5H35z M34,27.5c0-0.276,0.224-0.5,0.5-0.5h2c0.276,0,0.5,0.224,0.5,0.5
	S36.776,28,36.5,28h-2C34.224,28,34,27.776,34,27.5z M34.5,30h2c0.276,0,0.5-0.224,0.5-0.5S36.776,29,36.5,29h-2
	c-0.276,0-0.5,0.224-0.5,0.5S34.224,30,34.5,30z M37,38c-0.276,0-0.5,0.224-0.5,0.5S36.724,39,37,39s0.5-0.224,0.5-0.5
	S37.276,38,37,38z M39,38c-0.276,0-0.5,0.224-0.5,0.5S38.724,39,39,39s0.5-0.224,0.5-0.5S39.276,38,39,38z M41,38
	c-0.276,0-0.5,0.224-0.5,0.5S40.724,39,41,39s0.5-0.224,0.5-0.5S41.276,38,41,38z M43,38c-0.276,0-0.5,0.224-0.5,0.5
	S42.724,39,43,39s0.5-0.224,0.5-0.5S43.276,38,43,38z M4.5,19h9c0.276,0,0.5-0.224,0.5-0.5S13.776,18,13.5,18h-9
	C4.224,18,4,18.224,4,18.5S4.224,19,4.5,19z M4.5,21h9c0.276,0,0.5-0.224,0.5-0.5S13.776,20,13.5,20h-9C4.224,20,4,20.224,4,20.5
	S4.224,21,4.5,21z M4.5,33h19c0.276,0,0.5-0.224,0.5-0.5S23.776,32,23.5,32h-19C4.224,32,4,32.224,4,32.5S4.224,33,4.5,33z M4.5,41
	h9c0.276,0,0.5-0.224,0.5-0.5S13.776,40,13.5,40h-9C4.224,40,4,40.224,4,40.5S4.224,41,4.5,41z M29.5,27h-25
	C4.224,27,4,26.776,4,26.5S4.224,26,4.5,26h25V27z M29.5,29h-25C4.224,29,4,28.776,4,28.5S4.224,28,4.5,28h25V29z M29.5,31h-25
	C4.224,31,4,30.776,4,30.5S4.224,30,4.5,30h25V31z M29.5,37h-25C4.224,37,4,36.776,4,36.5S4.224,36,4.5,36h25V37z M29.5,39h-25
	C4.224,39,4,38.776,4,38.5S4.224,38,4.5,38h25V39z M31,17h6c1.105,0,2-0.895,2-2V9c0-1.105-0.895-2-2-2h-6c-1.105,0-2,0.895-2,2v6
	C29,16.105,29.895,17,31,17z M30,15V9c0-0.086,0.029-0.164,0.049-0.244L33.293,12l-3.244,3.244C30.029,15.164,30,15.086,30,15z
	 M31,16c-0.086,0-0.164-0.029-0.244-0.049L34,12.707l3.244,3.244C37.164,15.971,37.086,16,37,16H31z M37.951,8.756
	C37.971,8.836,38,8.914,38,9v6c0,0.086-0.029,0.164-0.049,0.244L34.707,12L37.951,8.756z M37,8c0.086,0,0.164,0.029,0.244,0.049
	L34,11.293l-3.244-3.244C30.836,8.029,30.914,8,31,8H37z M14.707,54l3.646,3.646l-0.707,0.707L14,54.707l-3.646,3.646l-0.707-0.707
	L13.293,54l-3.646-3.646l0.707-0.707L14,53.293l3.646-3.646l0.707,0.707L14.707,54z M62.5,29v1h-12v-1h10.635L50,21.113L48.042,22.5
	h-1.731l2.824-2L41.5,15.092v-1.226l8.5,6.021l11.711-8.295l0.578,0.816L50.865,20.5l11.424,8.092L62,29H62.5z M59.5,44h-9v1h9
	c0.276,0,0.5-0.224,0.5-0.5S59.776,44,59.5,44z M59.5,46h-9v1h9c0.276,0,0.5-0.224,0.5-0.5S59.776,46,59.5,46z M55.5,48h-5v1h5
	c0.276,0,0.5-0.224,0.5-0.5S55.776,48,55.5,48z M50.5,35h9c0.276,0,0.5-0.224,0.5-0.5S59.776,34,59.5,34h-9V35z M59.5,38h-9v1h9
	c0.276,0,0.5-0.224,0.5-0.5S59.776,38,59.5,38z M59.5,36h-9v1h9c0.276,0,0.5-0.224,0.5-0.5S59.776,36,59.5,36z M59.5,40h-9v1h9
	c0.276,0,0.5-0.224,0.5-0.5S59.776,40,59.5,40z M59.5,42h-9v1h9c0.276,0,0.5-0.224,0.5-0.5S59.776,42,59.5,42z"/>
<path class="frame" d="M40.135,51c-1.105,0-2,0.895-2,2s0.895,2,2,2s2-0.895,2-2S41.24,51,40.135,51z M40.135,54
	c-0.551,0-1-0.449-1-1s0.449-1,1-1s1,0.449,1,1S40.687,54,40.135,54z M47,25H33c-0.552,0-1,0.448-1,1v22c0,0.552,0.448,1,1,1h14
	c0.552,0,1-0.448,1-1V26C48,25.448,47.552,25,47,25z M47,48H33V26h14V48z M60,11H42V7c0-1.657-1.343-3-3-3H4C2.343,4,1,5.343,1,7v45
	c0,1.657,1.343,3,3,3h4.09c0.477,2.837,2.938,5,5.91,5s5.433-2.163,5.91-5H29c0,1.657,1.343,3,3,3h16c1.657,0,3-1.343,3-3h9
	c1.657,0,3-1.343,3-3V14C63,12.343,61.657,11,60,11z M14,59c-2.757,0-5-2.243-5-5s2.243-5,5-5s5,2.243,5,5S16.757,59,14,59z M29,25
	v29h-9c0-3.314-2.686-6-6-6s-6,2.686-6,6H4c-1.103,0-2-0.897-2-2V7c0-1.103,0.897-2,2-2h35c1.103,0,2,0.897,2,2v15h-9
	C30.343,22,29,23.343,29,25z M50,55c0,1.103-0.897,2-2,2H32c-1.103,0-2-0.897-2-2V25c0-1.103,0.897-2,2-2h16c1.103,0,2,0.897,2,2V55
	z M62,52c0,1.103-0.897,2-2,2h-9V25c0-1.657-1.343-3-3-3h-6V12h18c1.103,0,2,0.897,2,2V52z"/>
</svg>
